src/pos-icons/numeric-8-circle.svg

<svg height="24" viewBox="0 0 24 24" width="24" xmlns="http://www.w3.org/2000/svg"><path d="m11 13h2v2h-2zm0-4h2v2h-2zm0 8h2a2 2 0 0 0 2-2v-1.5a1.5 1.5 0 0 0 -1.5-1.5 1.5 1.5 0 0 0 1.5-1.5v-1.5c0-1.11-.9-2-2-2h-2a2 2 0 0 0 -2 2v1.5a1.5 1.5 0 0 0 1.5 1.5 1.5 1.5 0 0 0 -1.5 1.5v1.5c0 1.11.9 2 2 2m1-15a10 10 0 0 1 10 10 10 10 0 0 1 -10 10 10 10 0 0 1 -10-10 10 10 0 0 1 10-10z"/></svg>

<?xml version="1.0" encoding="UTF-8"?><!DOCTYPE svg PUBLIC "-//W3C//DTD SVG 1.1//EN" "http://www.w3.org/Graphics/SVG/1.1/DTD/svg11.dtd"><svg xmlns="http://www.w3.org/2000/svg" xmlns:xlink="http://www.w3.org/1999/xlink" version="1.1" id="mdi-numeric-8-circle" width="24" height="24" viewBox="0 0 24 24"><path d="M11,13H13V15H11V13M11,9H13V11H11V9M11,17H13A2,2 0 0,0 15,15V13.5A1.5,1.5 0 0,0 13.5,12A1.5,1.5 0 0,0 15,10.5V9C15,7.89 14.1,7 13,7H11A2,2 0 0,0 9,9V10.5A1.5,1.5 0 0,0 10.5,12A1.5,1.5 0 0,0 9,13.5V15C9,16.11 9.9,17 11,17M12,2A10,10 0 0,1 22,12A10,10 0 0,1 12,22A10,10 0 0,1 2,12A10,10 0 0,1 12,2Z" /></svg>
